X:1
T:Elephant and Castle, 76.76.77.76
T:Elephant and Castle, 76.76.77.76
T:Peter J. Goerz, harm. Henry J. K. Goerz, 1918
T:Public Domain Courtesy of the Cyber Hymnal™
C:Peter J. Goerz, harm. Henry J. K. Goerz, 1918
Z:Public Domain
Z:Courtesy of the Cyber Hymnal™
%%score ( 1 2 ) ( 3 4 )
L:1/8
Q:1/4=90
M:3/4
K:G
V:1 treble 
V:2 treble 
V:3 bass 
V:4 bass 
V:1
 G>[GA] | [GB]3 [DA] [EG]>[CE] | [B,D]4 [B,D]>[B,D] | [DG]4 [DG]2 | [GB] [FA]3 G>[GA] | %5
 [GB]3 [DA] [EG]>[CE] | [B,D]4 [DG]>[EA] | [DB]4 [DG]2 | [DA] [DG]3 [GB]>[Gc] | %9
 [Gd]3 [Gc] [GB]>[FA] | [GB]4 [GB]>[Gc] | [Gd]3 [Gc] [GB]>[FA] | [GB]4 G>[GA] | %13
 [GB]3 [=FA] [EG]>[CE] | [B,D]4 [DG]>[EA] | [DB]4 [DG]2 | [DA] [DG]3 |] %17
V:2
 G3/2 x/ | x6 | x6 | x6 | x4 G3/2 x/ | x6 | x6 | x6 | x6 | x6 | x6 | x6 | x4 G3/2 x/ | x6 | x6 | %15
 x6 | x4 |] %17
V:3
 [G,B,]>[G,C] | [G,D]3 [G,B,] [C,C]>[C,G,] | [G,,G,]4 G,>G, | [G,B,]4 [G,B,]2 | %4
 [D,D] [D,D]3 [G,B,]>[G,C] | [G,D]3 [G,B,] [C,C]>[C,G,] | [G,,G,]4 [B,,G,]>[C,G,] | %7
 [D,G,]4 [D,B,]2 | [D,C] [G,,B,]3 G,>[G,A,] | [G,B,]3 [G,E] [G,D]>[D,D] | [G,D]4 G,>[G,A,] | %11
 [G,B,]3 [G,E] [G,D]>[D,D] | [G,D]4 [G,B,]>[G,C] | [G,D]3 [B,,D] [C,C]>[C,G,] | %14
 [G,,G,]4 [B,,G,]>[C,G,] | [D,G,]4 [D,B,]2 | [D,C] [G,,B,]3 |] %17
V:4
 x2 | x6 | x4 G,>G, | x6 | x6 | x6 | x6 | x6 | x4 G,3/2 x/ | x6 | x4 G,3/2 x/ | x6 | x6 | x6 | x6 | %15
 x6 | x4 |] %17

